X:2069
T:Branle du curé
A:FLANDRE
O:FRANCE
M:2/4
L:1/8
Q:1/4=150
K:G
GG/2G/2|ddBd/2c/2|cBBAG|B2c2|dD2:|
AA/2A/2|AABBc|d2GG/2G/2|GGF>E|D2GG/2G/2|AABc|d2G2|dc BA|B>A G2||


